X: 20272
T: STANWIX WALTZ
C:
%R: waltz
B: Elias Howe "The Musician's Companion" 1843 p.27 #2
S: http://imslp.org/wiki/The_Musician's_Companion_(Howe,_Elias)
Z: 2015 John Chambers <jc:trillian.mit.edu>
N: The repeats for the 2nd and 3rd strain aren't clear; not fixed.
N: Maybe all strains exept the 2nd should be repeated, or maybe 2nd+3rd is one repeated part.
M: 3/8
L: 1/16
K: D
% - - - - - - - - - - - - - - - - - - - - - - - - -
|:\
(A2a2)f2 | d4f2 | (efgfed) | (cdedcB) |\
(A2a2)f2 | d4f2 | (efgedc) | d4z2 :|\
.e2(edcB) | .A2(ABcd) |
.e2(efga) | (b2a2.g2) |\
(f2a2).a2 | (a2g2).e2 | (g2e2)c2 | d4z2 |[|\
({D}d2=f2g2) | (a2=f2f2) | (g2e2e2) | =f2d2A2 |\
({D}d2=f2g2) |
(a2=f2f2) | (g2e2c2) | d4z2 ::\
^F2(AB)A2 | A2(de)d2 | e2f2g2 | (a2f2).d2 |\
(.B2d2g2) | .A2(d2f2) | {f}e2d2c2 | d4z2 :|
% - - - - - - - - - - - - - - - - - - - - - - - - -

%%sep 1 1 500

